ix/glass_bulk.svg

<svg viewBox="0 0 24 24" fill="none" xmlns="http://www.w3.org/2000/svg" height="1em" width="1em">
  <path d="M13.1905 16.29H10.8105V17.71H13.1905V16.29Z" fill="#292D32"/>
  <path d="M7.94977 2.71C7.94977 3.11 7.62977 3.43 7.23977 3.43H6.28977C4.57977 3.43 3.18977 4.82 3.18977 6.52V12.4C2.33977 12.83 1.75977 13.71 1.75977 14.73V6.52C1.75977 4.03 3.78977 2 6.28977 2H7.23977C7.62977 2 7.94977 2.32 7.94977 2.71Z" fill="#292D32"/>
  <path d="M22.2408 6.52V14.73C22.2408 13.71 21.6608 12.83 20.8108 12.4V6.52C20.8108 4.82 19.4208 3.43 17.7108 3.43H16.7608C16.3708 3.43 16.0508 3.11 16.0508 2.71C16.0508 2.32 16.3708 2 16.7608 2H17.7108C20.2108 2 22.2408 4.03 22.2408 6.52Z" fill="#292D32"/>
  <path opacity="0.4" d="M10.8098 14.7301V19.3801C10.8098 20.8301 9.62977 22.0001 8.18976 22.0001H4.37977C2.93977 22.0001 1.75977 20.8301 1.75977 19.3801V14.7301C1.75977 13.7101 2.33977 12.8301 3.18977 12.4001C3.54977 12.2101 3.94977 12.1101 4.37977 12.1101H8.18976C9.62977 12.1101 10.8098 13.2801 10.8098 14.7301Z" fill="#292D32"/>
  <path opacity="0.4" d="M22.2395 14.7301V19.3801C22.2395 20.8301 21.0595 22.0001 19.6195 22.0001H15.8095C14.3695 22.0001 13.1895 20.8301 13.1895 19.3801V14.7301C13.1895 13.2801 14.3695 12.1101 15.8095 12.1101H19.6195C20.0495 12.1101 20.4495 12.2101 20.8095 12.4001C21.6595 12.8301 22.2395 13.7101 22.2395 14.7301Z" fill="#292D32"/>
</svg>

<svg viewBox="0 0 24 24" fill="none" xmlns="http://www.w3.org/2000/svg" height="1em" width="1em">
  <path d="M13.19 16.29h-2.38v1.42h2.38v-1.42ZM7.95 2.71c0 .4-.32.72-.71.72h-.95a3.1 3.1 0 0 0-3.1 3.09v5.88c-.85.43-1.43 1.31-1.43 2.33V6.52A4.53 4.53 0 0 1 6.29 2h.95c.39 0 .71.32.71.71Zm14.29 3.81v8.21c0-1.02-.58-1.9-1.43-2.33V6.52a3.1 3.1 0 0 0-3.1-3.09h-.95a.715.715 0 0 1 0-1.43h.95c2.5 0 4.53 2.03 4.53 4.52Z" fill="#292D32"/>
  <path opacity=".4" d="M10.81 14.73v4.65c0 1.45-1.18 2.62-2.62 2.62H4.38c-1.44 0-2.62-1.17-2.62-2.62v-4.65c0-1.02.58-1.9 1.43-2.33.36-.19.76-.29 1.19-.29h3.81c1.44 0 2.62 1.17 2.62 2.62Zm11.43 0v4.65c0 1.45-1.18 2.62-2.62 2.62h-3.81c-1.44 0-2.62-1.17-2.62-2.62v-4.65c0-1.45 1.18-2.62 2.62-2.62h3.81c.43 0 .83.1 1.19.29.85.43 1.43 1.31 1.43 2.33Z" fill="#292D32"/>
</svg>
